hero/outline/link.svg

<svg width="24" height="24" viewBox="0 0 24 24" fill="none" xmlns="http://www.w3.org/2000/svg">
<path d="M13.1903 8.68842C13.6393 8.90291 14.0601 9.19611 14.432 9.56802C16.1893 11.3254 16.1893 14.1746 14.432 15.932L9.93198 20.432C8.17462 22.1893 5.32538 22.1893 3.56802 20.432C1.81066 18.6746 1.81066 15.8254 3.56802 14.068L5.32499 12.311M18.675 11.689L20.432 9.93198C22.1893 8.17462 22.1893 5.32538 20.432 3.56802C18.6746 1.81066 15.8254 1.81066 14.068 3.56802L9.56802 8.06802C7.81066 9.82538 7.81066 12.6746 9.56802 14.432C9.93992 14.8039 10.3607 15.0971 10.8097 15.3116" stroke="#0F172A" stroke-width="1.5" stroke-linecap="round" stroke-linejoin="round"/>
</svg>

<svg viewBox="0 0 24 24" xmlns="http://www.w3.org/2000/svg"><path fill="none" stroke="#000" stroke-linecap="round" stroke-linejoin="round" stroke-width="1.5" d="M13.19 8.68h0c2.24 1.07 3.19 3.75 2.12 5.99 -.23.46-.52.88-.89 1.24l-4.5 4.5h0c-1.76 1.75-4.61 1.75-6.37 0 -1.76-1.76-1.76-4.61-.001-6.37l1.75-1.76m13.35-.63l1.75-1.76v0c1.75-1.76 1.75-4.61 0-6.37 -1.76-1.76-4.61-1.76-6.37-.001l-4.5 4.5v0c-1.76 1.75-1.76 4.6-.01 6.36 .36.36.78.65 1.24.88"/></svg>
